X:1
T:Stoney, 10.10.1.4
T:Stoney, 10.10.1.4
T:Frank Elbert Applegate Stoney, 1916
T:Public Domain Courtesy of the Cyber Hymnal™
C:Frank Elbert Applegate Stoney, 1916
Z:Public Domain
Z:Courtesy of the Cyber Hymnal™
%%score ( 1 2 ) ( 3 4 )
L:1/8
Q:1/4=115
M:4/4
K:Ab
V:1 treble 
V:2 treble 
V:3 bass 
V:4 bass 
V:1
 [Cc]4 [EB]2 [EA]2 | [EG]6 [DF]2 | [DE]2 [CA]2 [EB]2 [DE]2 | [Ec]6 z2 | [=Ec]4 [Ec]2 [GB]2 | %5
 [FA]6 [EG]2 | [EF]2 [EG]2 [FA]2 [=DB]2 | [EB]6 z2 | [Ee]4 [Ee]2 [Ed]2 | [Ec]6 [EA]2 | %10
 [EG]2 [DF]2 [DA]2 [DF]2 | E6 [FA]2 | [=Ec]4 [Gc]4 | [EA]8 |] %14
V:2
 x8 | x8 | x8 | x8 | x8 | x8 | x8 | x8 | x8 | x8 | x8 | E6 x2 | x8 | x8 |] %14
V:3
 [A,,E,]4 [C,A,]2 [C,A,]2 | [D,A,]6 [D,A,]2 | [E,G,]2 [F,A,]2 G,2 [G,B,]2 | A,6 z2 | %4
 [C,G,]4 [C,C]2 [=E,C]2 | [F,C]6 [G,C]2 | [A,C]2 [G,C]2 [F,C]2 [B,,A,]2 | [E,G,]6 z2 | %8
 [C,A,]4 [B,,G,]2 [B,,G,]2 | [A,,A,]6 [C,A,]2 | [D,A,]2 [D,A,]2 [F,A,]2 [G,B,]2 | [A,C]6 [F,C]2 | %12
 [C,C]4 [E,D]4 | [A,,A,C]8 |] %14
V:4
 x8 | x8 | x4 G,2 x2 | A,6 x2 | x8 | x8 | x8 | x8 | x8 | x8 | x8 | x8 | x8 | x8 |] %14

